X: 37175
T: Sir Hugh O'Neill
R: jig
M: 6/8
K: Gmajor
|:gGG Ggf|eGG G2 e|dcB gdB|Aag fef|
gGG Ggf|eGG G2 e|dcB gdB|1 AEF GBd:|2 AEF G2||
|:A|B/c/dB GDD|AGA BGG|c/d/ec AGA|F/G/AF D2 c|
B/c/dB GDD|AGA Bgf|e/f/ge dBG|AEF G2:|

